packages/core/src/svg/ui/upload-cloud.svg

<svg role="img" xmlns="http://www.w3.org/2000/svg" viewBox="0 0 24 24">
  <g fill="none" fill-rule="evenodd">
    <rect width="24" height="24"/>
    <path fill="currentColor" d="M7.5,12 L12,7.5 L16.5,12 L15,13.5 L13,11.5 L13,22 L11,22 L11,11.5 L9,13.5 L7.5,12 Z M11.5,2 C14.0570069,2 16.3672564,3.55157482 17.2358321,5.93092178 L17.2835,6.0665 L17.4145183,6.08731097 C20.0449239,6.53520702 21.9316381,8.61876864 21.9981819,11.350367 L22,11.5 C22,14.6411668 19.7996323,16.9265021 16.7006468,16.998261 L16.55,17 L15.5,17 L15.5,15 L16.55,15 C18.6163623,15 20,13.5942857 20,11.5 C20,9.538055 18.6018237,8.11877635 16.6000787,8.00507103 L16.4714957,7.99959367 L15.6755756,7.97689732 L15.5194193,7.19611614 C15.1395428,5.29673328 13.433695,4 11.5,4 C9.26285888,4 7.62213728,5.5585359 7.5065992,7.75063225 L7.50156899,7.88030287 L7.48772078,8.99175409 L6.33061979,9.0012438 C4.84064582,9.04438683 3.6,10.4529679 3.6,12.1 C3.6,13.6643787 4.83868693,14.9394465 6.38876321,14.9979059 L6.5,15 L8.5,15 L8.5,17 L6.5,17 C3.79380473,17 1.6,14.8061953 1.6,12.1 C1.6,9.68983052 3.25231852,7.56452435 5.49502278,7.09571076 L5.5645,7.082 L5.58684851,6.93675031 C6.05502185,4.09688845 8.36434526,2.06966277 11.3452237,2.00175907 L11.5,2 Z"/>
  </g>
</svg>

<svg viewBox="0 0 24 24" role="img" xmlns="http://www.w3.org/2000/svg"><g fill="none" fill-rule="evenodd"><path d="M0 0h24v24H0z"/><path d="M7.757 12.243L12 8l4.243 4.243-1.061 1.06L13 11.123V22h-2V11.121l-2.182 2.182-1.06-1.06zM11.5 2c2.557 0 4.867 1.552 5.736 3.93l.047.136.132.021c2.63.448 4.517 2.532 4.583 5.263l.002.15c0 3.141-2.2 5.427-5.3 5.498l-.15.002H15.5v-2h1.05c2.066 0 3.45-1.406 3.45-3.5 0-1.962-1.398-3.381-3.4-3.495L16.471 8l-.795-.023-.157-.78C15.14 5.296 13.434 4 11.5 4 9.263 4 7.622 5.559 7.507 7.75l-.005.13-.014 1.112-1.157.01C4.84 9.043 3.6 10.452 3.6 12.1a2.9 2.9 0 002.789 2.898L6.5 15h2v2h-2a4.9 4.9 0 01-4.9-4.9c0-2.41 1.652-4.535 3.895-5.004l.07-.014.022-.145c.468-2.84 2.777-4.867 5.758-4.935L11.5 2z" fill="currentColor"/></g></svg>
